X:108
T: Es war sich ein adliges Mdchen (1-34), S. 89f
N: K1086
O: Luxemburg
S: KINTZELE, Guillaume: An der Ucht, Bd. 1, Luxemburg 1926]
N: in der Quelle mit einer 2. Stimme versehen
R: Standesunterschied, Suizid]
M: 2/4
L: 1/16
K: G
D2 | B2A2GGG2F2EE | D4B2G4
D2 | B2A2GGG2F2EE | D4B2G4
d2 | d4BBB2 | B2B2A2B2 | c4z2
AA | A2F2D2d2 | d2d2c2c2 | B4z2
d2 | e2d2B2BB | B2B2A2B2 | c4z2
AA | A2F2D2d2 | d2d2c2c2 | B4z2

@@@ Tune index: 8162
